my-site/themes/moving-test/assets/images/your-icon.svg

<svg width="31" height="31" viewBox="0 0 31 31" fill="none" xmlns="http://www.w3.org/2000/svg">
<rect x="0.5" y="0.5" width="29.7686" height="29.7686" rx="4.5" stroke="white"/>
<path d="M22.8345 17.4851L22.4098 18.2284C21.8818 19.1524 21.2097 19.986 20.4186 20.698L15.3857 25.2275L10.3528 20.698C9.56182 19.986 8.88964 19.1524 8.36168 18.2284L7.93692 17.4851C7.10986 16.0377 6.78881 14.356 7.02458 12.7057C7.19442 11.5168 7.64747 10.386 8.34555 9.40874L8.62194 9.02177C9.77014 7.4143 11.4533 6.2683 13.3698 5.78919C14.6934 5.45829 16.0781 5.45829 17.4017 5.78919C19.3181 6.2683 21.0013 7.4143 22.1494 9.02177L22.426 9.40874C23.124 10.386 23.577 11.5168 23.7469 12.7057C23.9827 14.356 23.6616 16.0377 22.8345 17.4851ZM15.3857 18.664C17.9555 18.664 20.0387 16.5808 20.0387 14.0109C20.0387 11.4411 17.9555 9.35784 15.3857 9.35784C12.8159 9.35784 10.7326 11.4411 10.7326 14.0109C10.7326 16.5808 12.8159 18.664 15.3857 18.664Z" fill="white"/>
</svg>

<svg xmlns="http://www.w3.org/2000/svg" width="31" height="31" fill="none" viewBox="0 0 31 31"><rect width="29.769" height="29.769" x=".5" y=".5" stroke="#fff" rx="4.5"/><path fill="#fff" d="m22.835 17.485-.425.743a10 10 0 0 1-1.991 2.47l-5.033 4.53-5.033-4.53a10 10 0 0 1-1.991-2.47l-.425-.743a7.5 7.5 0 0 1 .409-8.076l.276-.387a8.312 8.312 0 0 1 13.527 0l.277.387a7.5 7.5 0 0 1 .409 8.076m-7.45 1.179a4.653 4.653 0 1 0 0-9.306 4.653 4.653 0 0 0 0 9.306"/></svg>
